X:1
T:Roll, Alabama, Roll
M:4/4
L:1/4
K:G
 B/2A/2| G D B, D| G A B2| B B/2B/2 c B| A3| B/2A/2| G D/2D/2 B, D|\
 G/2G/2 A B c| B A/2G/2 A A| G3||
